material/.icons/material/usb-flash-drive.svg

<svg xmlns="http://www.w3.org/2000/svg" viewBox="0 0 24 24"><path d="M8 15c.55 0 1 .45 1 1s-.45 1-1 1-1-.45-1-1 .45-1 1-1m7.07-10.31L16.5 6.1l-1.43 1.4-1.41-1.4 1.41-1.41M17.9 7.5l1.41 1.43-1.41 1.41-1.4-1.41 1.4-1.43M8 13c-1.66 0-3 1.34-3 3s1.34 3 3 3 3-1.34 3-3-1.34-3-3-3m1.77-8.67l.73.75 3.79-3.79c.18-.18.43-.29.71-.29.28 0 .53.11.71.29l7.07 7.07v.01a1.02 1.02 0 01-.12 1.39l-3.73 3.74.74.73-6.72 6.72A6.976 6.976 0 018 23c-3.87 0-7-3.13-7-7 0-1.93.78-3.68 2.05-4.95l6.72-6.72M20.59 9L15 3.41 11.93 6.5l5.57 5.58L20.59 9z"/></svg>

<?xml version="1.0" encoding="UTF-8"?><!DOCTYPE svg PUBLIC "-//W3C//DTD SVG 1.1//EN" "http://www.w3.org/Graphics/SVG/1.1/DTD/svg11.dtd"><svg xmlns="http://www.w3.org/2000/svg" xmlns:xlink="http://www.w3.org/1999/xlink" version="1.1" id="mdi-usb-flash-drive" width="24" height="24" viewBox="0 0 24 24"><path d="M8 15C8.55 15 9 15.45 9 16C9 16.55 8.55 17 8 17C7.45 17 7 16.55 7 16C7 15.45 7.45 15 8 15M15.07 4.69L16.5 6.1L15.07 7.5L13.66 6.1L15.07 4.69M17.9 7.5L19.31 8.93L17.9 10.34L16.5 8.93L17.9 7.5M8 13C6.34 13 5 14.34 5 16C5 17.66 6.34 19 8 19C9.66 19 11 17.66 11 16C11 14.34 9.66 13 8 13M9.77 4.33L10.5 5.08L14.29 1.29C14.47 1.11 14.72 1 15 1C15.28 1 15.53 1.11 15.71 1.29L22.78 8.36L22.78 8.37C22.92 8.54 23 8.76 23 9C23 9.3 22.87 9.57 22.66 9.76L22.66 9.76L18.93 13.5L19.67 14.23L12.95 20.95C11.68 22.22 9.93 23 8 23C4.13 23 1 19.87 1 16C1 14.07 1.78 12.32 3.05 11.05L9.77 4.33M20.59 9L15 3.41L11.93 6.5L17.5 12.08L20.59 9Z" /></svg>
